qml/icons/fallback/nearby-search-symbolic.svg

<?xml version="1.0" encoding="UTF-8" standalone="no"?>
<!-- Created with Inkscape (http://www.inkscape.org/) -->

<svg
   xmlns:dc="http://purl.org/dc/elements/1.1/"
   xmlns:cc="http://creativecommons.org/ns#"
   xmlns:rdf="http://www.w3.org/1999/02/22-rdf-syntax-ns#"
   xmlns:svg="http://www.w3.org/2000/svg"
   xmlns="http://www.w3.org/2000/svg"
   xmlns:sodipodi="http://sodipodi.sourceforge.net/DTD/sodipodi-0.dtd"
   xmlns:inkscape="http://www.inkscape.org/namespaces/inkscape"
   width="64"
   height="64"
   id="svg1901"
   sodipodi:version="0.32"
   inkscape:version="0.92.4 5da689c313, 2019-01-14"
   sodipodi:docname="nearby_search_kirigami_FIXED.svg"
   version="1.1"
   inkscape:export-xdpi="67.5"
   inkscape:export-ydpi="67.5"
   inkscape:export-filename="/home/mo/Dokumente/Pure Maps/missing/nearby_search_kirigami_FIXED.png">
  <defs
     id="defs1903" />
  <sodipodi:namedview
     id="base"
     pagecolor="#ffffff"
     bordercolor="#666666"
     borderopacity="1.0"
     inkscape:pageopacity="0.0"
     inkscape:pageshadow="2"
     inkscape:zoom="7.9016861"
     inkscape:cx="56.09327"
     inkscape:cy="-7.6575732"
     inkscape:document-units="px"
     inkscape:current-layer="g825"
     inkscape:window-width="2880"
     inkscape:window-height="1506"
     inkscape:window-x="0"
     inkscape:window-y="0"
     showgrid="true"
     inkscape:window-maximized="1"
     inkscape:showpageshadow="false"
     showguides="true"
     inkscape:snap-grids="true"
     inkscape:snap-global="true"
     inkscape:snap-intersection-paths="true"
     inkscape:object-nodes="true"
     inkscape:snap-smooth-nodes="true"
     inkscape:snap-midpoints="true"
     inkscape:object-paths="true"
     inkscape:document-rotation="0"
     inkscape:guide-bbox="true">
    <inkscape:grid
       type="xygrid"
       id="grid10137"
       empspacing="16"
       visible="true"
       enabled="true"
       snapvisiblegridlinesonly="true" />
    <sodipodi:guide
       position="10,35"
       orientation="1,0"
       id="guide866"
       inkscape:locked="false" />
    <sodipodi:guide
       position="5,38"
       orientation="1,0"
       id="guide868"
       inkscape:locked="false" />
    <sodipodi:guide
       position="36,54"
       orientation="0,1"
       id="guide879"
       inkscape:locked="false" />
    <sodipodi:guide
       position="30,57"
       orientation="0,1"
       id="guide822"
       inkscape:locked="false" />
    <sodipodi:guide
       position="15.496094,15.15625"
       orientation="1,0"
       id="guide840"
       inkscape:locked="false" />
    <sodipodi:guide
       position="74,15"
       orientation="0,1"
       id="guide919"
       inkscape:locked="false" />
  </sodipodi:namedview>
  <metadata
     id="metadata1906">
    <rdf:RDF>
      <cc:Work
         rdf:about="">
        <dc:format>image/svg+xml</dc:format>
        <dc:type
           rdf:resource="http://purl.org/dc/dcmitype/StillImage" />
        <dc:title></dc:title>
      </cc:Work>
    </rdf:RDF>
  </metadata>
  <g
     inkscape:label="Taso 1"
     inkscape:groupmode="layer"
     id="layer1"
     transform="translate(0,-988.3622)">
    <g
       id="g825"
       transform="translate(-0.8572132,0.17178455)">
      <path
         style="opacity:1;fill:#000000;fill-opacity:1;stroke:none;stroke-width:0;stroke-linecap:butt;stroke-linejoin:miter;stroke-miterlimit:4;stroke-dasharray:none;stroke-opacity:1;paint-order:stroke markers fill"
         d="M 17.763672,33.691406 C 6.895075,36.3909 0.01578705,41.93215 0,48 0,56.836556 14.326888,64 32,64 49.673112,64 64,56.836556 64,48 64.00119,41.98116 57.246748,36.471195 46.519531,33.740234 45.218276,35.851857 43.792298,37.95362 42.332031,40.039062 47.730229,41.787998 50.992103,44.783807 51,48 c -10e-7,5.246705 -8.50659,9.499999 -19,9.5 -10.49341,-10e-7 -18.999999,-4.253295 -19,-9.5 0.0013,-3.219659 3.263961,-6.219881 8.667969,-7.970703 C 20.34927,38.00111 19.022046,35.86751 17.763672,33.691406 Z"
         transform="translate(0.8572132,988.19042)"
         id="path841"
         inkscape:connector-curvature="0"
         sodipodi:nodetypes="ccsccccsccc" />
      <path
         style="opacity:1;fill:#000000;fill-opacity:1;stroke:none;stroke-width:1.27363765;stroke-miterlimit:4;stroke-dasharray:none;stroke-dashoffset:0;stroke-opacity:0.50196078"
         d="M 32 0 C 21.867961 0 14.777344 7.0935702 14.777344 17.224609 C 14.777344 25.697909 27.531151 43.152484 30.697266 47.021484 L 32 48.632812 L 33.917969 46.015625 C 40.4552 37.099725 49.414908 25.878809 49.222656 17.224609 C 49.222656 7.0935702 42.132041 -1.1368684e-13 32 0 z M 32.011719 9.2988281 C 36.794534 9.2988281 40.142578 12.798675 40.142578 17.796875 C 40.23333 22.065775 36.001907 27.6018 32.916016 32 L 32.011719 33.291016 L 31.396484 32.496094 C 29.901925 30.587494 23.880859 21.976575 23.880859 17.796875 C 23.880859 12.798675 27.228901 9.2988281 32.011719 9.2988281 z "
         transform="translate(0.8572132,988.19042)"
         id="path915" />
    </g>
  </g>
</svg>

<svg xmlns="http://www.w3.org/2000/svg" width="64" height="64"><path style="opacity:1;fill:#000;fill-opacity:1;stroke:none;stroke-width:0;stroke-linecap:butt;stroke-linejoin:miter;stroke-miterlimit:4;stroke-dasharray:none;stroke-opacity:1;paint-order:stroke markers fill" d="M17.764 33.691C6.895 36.391.016 41.932 0 48c0 8.837 14.327 16 32 16 17.673 0 32-7.163 32-16 .001-6.019-6.753-11.529-17.48-14.26-1.302 2.112-2.728 4.214-4.188 6.3C47.73 41.787 50.992 44.783 51 48c0 5.247-8.507 9.5-19 9.5S13 53.247 13 48c.001-3.22 3.264-6.22 8.668-7.97a143.26 143.26 0 0 1-3.904-6.339Z"/><path style="opacity:1;fill:#000;fill-opacity:1;stroke:none;stroke-width:1.27363765;stroke-miterlimit:4;stroke-dasharray:none;stroke-dashoffset:0;stroke-opacity:.50196078" d="M32 0C21.868 0 14.777 7.094 14.777 17.225c0 8.473 12.754 25.927 15.92 29.796L32 48.633l1.918-2.617c6.537-8.916 15.497-20.137 15.305-28.791C49.223 7.094 42.132 0 32 0zm.012 9.299c4.783 0 8.13 3.5 8.13 8.498.091 4.269-4.14 9.805-7.226 14.203l-.904 1.291-.616-.795c-1.494-1.909-7.515-10.52-7.515-14.7 0-4.997 3.348-8.497 8.13-8.497z"/></svg>
